X: 20752
T: The Blind Lover
%R: reel
B: James Oswald "The Caledonian Pocket Companion" v.2 p.75 #2
Z: 2019 John Chambers <jc:trillian.mit.edu>
M: C
L: 1/8
K: G
G2 | "_Moderately Quick"\
(GB)d2 (Gc)e2 | .d(BTAG) g3f |\
(ef)(ge) (dB)(TAG) | d3e d2 :: d2 |\
(dc)(cB) (B2A)e | (ed)(dc) {c}B3d |
e3g (dB) (gB) | A2 (3(gdB) A2B>d |\
(Ted)(Ted) (Ted)(Ted) | e>f {a}g(f/e/) d2 (g3/a//b//) |\
(3agf (3edc B2 (A3/G//A//) | G6 :|
[M:6/8]\
|: "_Brisk"g |\
G2B B2c | dBg ecg | dBg ecg | dBG AFD |\
G2B B2c | dBg ecg | dBG AcB | cAF G2 :|
|: f |\
gbg afa | ege dBd | ede gdB | gdB A2g |\
G2B B2d | bgb afd | (e/f/g)e dBG | cAF G3 :|


